X:1
T:[ID 4-46r]
T:[ID 4-46r]
T:Bezeichnung standardisiert: March March
T:Urheber unbekannt Datum in der hier transkribierten schriftlichen Quelle: vermutlich um 1800
C:Urheber unbekannt
C:Datum in der hier transkribierten schriftlichen Quelle: vermutlich um 1800
L:1/8
M:4/4
K:G
V:1 treble 
V:1
 G4 D4 | G2 BA G2 z2 | B4 G4 | B2 dc B2 z2 | d2 dddBcd | c2 cccABc | BGBdgdcB | A2 AA A2 z2 :: %8
 d4 B4 | c2 ec A2 z2 | f2 ffgdBG | A2 AA A2 z2 | G3 D G2 B2 | AGABGABc | dgf/e/d/c/ B2 A2 | %15
 G2 GG G2 z2 :| %16

